!!!OTL: Lasst uns, ihr Brueder! Weisheit erhoehn.
!!!OTL-incipit: LASST UNS IHR BRUEDER WEISHEIT ERHOEHN
!!!ARE: Europa, Mitteleuropa, Deutschland
!!!SCT: F0544
!!!TXL: @@DE
!!!YEM: Copyright 1995, estate of Helmut Schaffrath.
**kern	**text
*ICvox	*
*clefG2	*
*M3/4	*
*k[f#]	*
*G:	*
=1	=1
!LO:TX:a:t=Froh und würdig.	!
!LO:TX:a:t=P:only the highest voice encoded:problem	!
{4g	1._Laßt
8b/L	uns,
8gJ	.
8dd/L	ihr
8bJ	.
=2	=2
(>4a	Brü-
4f#)	.
4d}	-der,
=3	=3
{4g	Weisheit(Freundſchaft)
8b/L	.
8gJ	.
8dd/L	er-
8bJ	.
=4	=4
4bqq	.
2a	-höh'n!
4r}	.
=5	=5
{4ee/	Sin-
4ee/	-get
4ee/	ihr
=6	=6
(>4.dd/	Lie-
8cc/)	.
4b/}	-der
=7	=7
{8dd/L	1._feu-
8ccJ	.
4b/	-rig
4a	und
=8	=8
8gJ	ſchön
8a	.
8b	.
8ccJ	.
4dd/}	.
=9	=9
{4ee/	Sin-
4ee/	-get
4ee/	ihr
=10	=10
(>4.dd/	Lie-
8cc/)	.
4b/}	-der
=11	=11
{8dd/L	1._feu-
8ccJ	.
4b/	-rig
4a	und
=12	=12
2g	ſchön.
4r}	.
==	==
!!!AGN: Studenten - Lied
!!!ONB: ESAC (Essen Associative Code) Database: FINK
!!!AMT: simple triple
!!!AIN: vox
!!!EED: Helmut Schaffrath
!!!EEV: 1.0
!!!RDF**kern: > = above
!!Text: Stolberg
!!!GTL: Studentenlieder
!!!source: Musikalischer Hausschatz der Deutschen. Eine Sammlung von über 1000 Liedern und Gesängen mit Singstimmen und Klavierbegleitung. Leipzig, Litterarisches Verlags-Haus.
!!!page: 349
!!!URL-scan: https://digitale-sammlungen.de/en/view/bsb11144622?page=326
!!!ENC: Anna Maria Matuszewska
!!!EEV: 2024/02/08
*-	*-